X: 4173
T: ROLL HER IN THE RUSHES
%R: reel
B: James Kerr "Merry Melodies" v.4 p.20 #173
Z: 2016 John Chambers <jc:trillian.mit.edu>
M: C|
L: 1/8
K: D
|:\
AD D/D/D (AG)EF | (GE) cE (dE) cE |\
AD D/D/D (AG)EF | GE=cE (ED)D2 ::\
AddB c2(ec) |
AcGc AcGc |\
[1 AddB c2(ec) | AcGA (ED)D2 :|\
[2 dBcA BGAF | GE=cE (ED)D2 |]

%%sep 1 1 500
%%sep 1 1 500

